exports/global-demand-for-education-global-population-younger-than-15-until-2100-by-education-scenario-by-the-wittgenstein-centre_v1_850x600.svg

<svg xmlns="http://www.w3.org/2000/svg" version="1.1" style="background-color:#fff;-webkit-font-smoothing:antialiased" width="850" height="600" font-family="'Helvetica Neue',Helvetica,Arial,sans-serif" font-size="18" text-rendering="optimizeLegibility"><g class="ChartTab"><g class="HeaderView"><g opacity=".8" transform="matrix(.31 0 0 .31 770 15)"><a xmlns:xlink="http://www.w3.org/1999/xlink" xlink:href="https://ourworldindata.org" target="_blank"><g><path fill="#1B2543" d="M0 0h211.2v130.1H0z"/><path fill="#E63912" d="M0 112.2h211.2v17.9H0z"/><g><path fill="none" d="M1.2 12.3h210.2v99.2H1.2z"/><path fill="#FFF" d="M37.8 32.2c0 12.7-7.7 19.4-17.1 19.4-9.7 0-16.6-7.5-16.6-18.7 0-11.7 7.3-19.3 17.1-19.3 10.1.1 16.6 7.7 16.6 18.6zm-28.6.6c0 7.9 4.3 14.9 11.8 14.9 7.5 0 11.8-6.9 11.8-15.3 0-7.3-3.8-14.9-11.8-14.9-7.9 0-11.8 7.3-11.8 15.3zM62.7 43.8c0 2.7.1 5.1.2 7.2h-4.3l-.3-4.3h-.1c-1.3 2.1-4 4.9-8.8 4.9-4.2 0-9.1-2.3-9.1-11.6V24.6h4.8v14.6c0 5 1.5 8.4 5.9 8.4 3.2 0 5.5-2.2 6.3-4.4.3-.7.4-1.6.4-2.5V24.6h4.8v19.2zM67.3 32.8c0-3.1-.1-5.8-.2-8.2h4.2l.2 5.2h.2c1.2-3.5 4.1-5.8 7.3-5.8.5 0 .9.1 1.4.2v4.5c-.5-.1-1-.2-1.6-.2-3.4 0-5.8 2.6-6.5 6.2-.1.7-.2 1.4-.2 2.2V51h-4.8V32.8zM95.4 51L86 14.2h5l4.4 18.6c1.1 4.6 2.1 9.2 2.7 12.7h.1c.6-3.7 1.8-8 3-12.8l4.9-18.5h5l4.5 18.7c1 4.4 2 8.7 2.6 12.6h.1c.8-4 1.8-8.1 3-12.7l4.9-18.5h4.9L120.6 51h-5L111 31.9c-1.1-4.7-1.9-8.3-2.4-12h-.1c-.7 3.7-1.5 7.3-2.8 12L100.4 51h-5zM154.9 37.6c0 9.8-6.8 14-13.2 14-7.2 0-12.7-5.2-12.7-13.6 0-8.8 5.8-14 13.1-14 7.7 0 12.8 5.5 12.8 13.6zm-21 .3c0 5.8 3.3 10.1 8 10.1 4.6 0 8-4.3 8-10.3 0-4.5-2.2-10.1-7.9-10.1s-8.1 5.2-8.1 10.3zM158.2 32.8c0-3.1-.1-5.8-.2-8.2h4.2l.2 5.2h.2c1.2-3.5 4.1-5.8 7.3-5.8.5 0 .9.1 1.4.2v4.5c-.5-.1-1-.2-1.6-.2-3.4 0-5.8 2.6-6.5 6.2-.1.7-.2 1.4-.2 2.2V51h-4.8V32.8zM173.5 12.3h4.8V51h-4.8V12.3zM206.5 12.3v31.9c0 2.3.1 5 .2 6.8h-4.3l-.2-4.6h-.2c-1.5 2.9-4.7 5.2-9 5.2-6.4 0-11.3-5.4-11.3-13.4-.1-8.8 5.4-14.2 11.9-14.2 4 0 6.8 1.9 8 4h.1V12.3h4.8zm-4.8 23.1c0-.6-.1-1.4-.2-2a7 7 0 00-6.9-5.6c-5 0-7.9 4.4-7.9 10.2 0 5.3 2.6 9.8 7.8 9.8 3.2 0 6.2-2.1 7.1-5.7.2-.7.2-1.3.2-2.1v-4.6zM42.8 64c.1 1.6-1.1 2.9-3.1 2.9-1.7 0-2.9-1.3-2.9-2.9 0-1.7 1.3-3 3-3 1.9 0 3 1.3 3 3zm-5.4 33.8V71.4h4.8v26.4h-4.8zM47.5 78.6c0-2.7-.1-5-.2-7.1h4.3l.3 4.4h.1c1.3-2.5 4.4-5 8.8-5 3.7 0 9.4 2.2 9.4 11.2v15.8h-4.8V82.6c0-4.3-1.6-7.8-6.1-7.8-3.2 0-5.6 2.2-6.5 4.9-.2.6-.3 1.4-.3 2.2v15.9h-4.8V78.6zM84 61.6c2.9-.4 6.3-.8 10.1-.8 6.8 0 11.7 1.6 14.9 4.6 3.3 3 5.2 7.3 5.2 13.2 0 6-1.9 10.9-5.3 14.3-3.4 3.4-9.1 5.3-16.3 5.3-3.4 0-6.2-.2-8.6-.4V61.6zm4.8 32.5c1.2.2 3 .3 4.8.3 10.2 0 15.7-5.7 15.7-15.6.1-8.7-4.9-14.2-14.9-14.2-2.5 0-4.3.2-5.6.5v29zM132.1 97.8l-.4-3.3h-.2a9.79 9.79 0 01-8.1 3.9c-5.4 0-8.1-3.8-8.1-7.6 0-6.4 5.7-9.9 15.9-9.8v-.5c0-2.2-.6-6.1-6-6.1-2.5 0-5 .8-6.9 2l-1.1-3.2c2.2-1.4 5.4-2.3 8.7-2.3 8.1 0 10.1 5.5 10.1 10.8v9.9c0 2.3.1 4.5.4 6.3h-4.3zm-.7-13.4c-5.3-.1-11.2.8-11.2 5.9 0 3.1 2.1 4.6 4.5 4.6 3.4 0 5.6-2.2 6.4-4.4.2-.5.3-1 .3-1.5v-4.6zM146.6 63.9v7.6h6.9v3.7h-6.9v14.2c0 3.3.9 5.1 3.6 5.1 1.3 0 2.2-.2 2.8-.3l.2 3.6c-.9.4-2.4.7-4.3.7-2.2 0-4-.7-5.2-2-1.4-1.4-1.9-3.8-1.9-6.9V75.1h-4.1v-3.7h4.1v-6.3l4.8-1.2zM171.4 97.8l-.4-3.3h-.2a9.79 9.79 0 01-8.1 3.9c-5.4 0-8.1-3.8-8.1-7.6 0-6.4 5.7-9.9 15.9-9.8v-.5c0-2.2-.6-6.1-6-6.1-2.5 0-5 .8-6.9 2l-1.1-3.2c2.2-1.4 5.4-2.3 8.7-2.3 8.1 0 10.1 5.5 10.1 10.8v9.9c0 2.3.1 4.5.4 6.3h-4.3zm-.7-13.4c-5.3-.1-11.2.8-11.2 5.9 0 3.1 2.1 4.6 4.5 4.6 3.4 0 5.6-2.2 6.4-4.4.2-.5.3-1 .3-1.5v-4.6z"/></g></g></a></g><a href="https://ourworldindata.org/grapher/global-demand-for-education-global-population-younger-than-15-until-2100-by-education-scenario-by-the-wittgenstein-centre" target="_blank"><text font-size="21.6" x="15" y="32.3" fill="#555"><tspan x="15" y="32.28">Projections of the global population younger than 15, by education scenario</tspan></text></a></g><g class="LineChart"><defs><clipPath id="a"><path d="M87.6 0h830v933.8h-830z"/></clipPath></defs><g class="AxisBoxView"><g class="HorizontalAxis" fill="#666" text-anchor="middle" font-size="16.2"><text x="97.6" y="541.9">1970</text><text x="212" y="541.9">2000</text><text x="288.3" y="541.9">2020</text><text x="364.6" y="541.9">2040</text><text x="440.9" y="541.9">2060</text><text x="517.1" y="541.9">2080</text><text x="593.4" y="541.9">2100</text></g><g class="VerticalAxis" fill="#666" dominant-baseline="middle" text-anchor="end" font-size="16.2"><text x="92.6" y="520.7">0</text><text x="92.6" y="406.2">500 million</text><text x="92.6" y="291.7">1 billion</text><text x="92.6" y="177.3">1.5 billion</text></g><g class="AxisGridLines"><path stroke="#ccc" d="M97.6 520.7h495.82"/><path stroke="#ddd" stroke-dasharray="3,2" d="M97.6 406.2h495.82M97.6 291.7h495.82M97.6 177.3h495.82"/></g><g class="AxisGridLines" stroke="#ddd" stroke-dasharray="3,2"><path d="M135.7 520.7V75M212 520.7V75M288.3 520.7V75M364.6 520.7V75M440.9 520.7V75M517.1 520.7V75M593.4 520.7V75"/></g></g><g clip-path="url(#a)"><g class="HeightedLegend clickable"><g class="legendMark"><path fill="#34983f" d="M603.42 126.15h10v2.5h-10z"/><text font-size="14.4" x="618.4" y="124" fill="#333"><tspan x="618.42" y="123.97">Constant Enrollment Rates (CER)</tspan><tspan x="618.42" y="139.81">scenario</tspan></text></g><g class="legendMark"><path fill="#ca2628" d="M603.42 236.35h10v2.5h-10z"/><text font-size="14.4" x="618.4" y="234.2" fill="#333"><tspan x="618.42" y="234.17">Global Education Trends (GET)</tspan><tspan x="618.42" y="250.01">scenario</tspan></text></g><g class="legendMark"><path fill="#3360a9" d="M603.42 288.95h10v2.5h-10z"/><text font-size="14.4" x="618.4" y="294.5" fill="#333"><tspan x="618.42" y="294.52">Fast Track (FT) scenario</tspan></text></g></g><g class="Lines"><g class="key-World_0"><path stroke="#ca2628" stroke-linecap="round" d="M98 205l19-26 19-17 19-17 19-21 19-19 19-6 19 3 19-3 19-4 19-4 19 2 19 4 20 6 19 5 19 6 19 8 19 10 19 12 19 12 19 11 19 11 19 11 19 13 19 12 19 12 19 12" fill="none" stroke-width="1.5"/><g fill="#ca2628"><circle cx="98" cy="205" r="2"/><circle cx="117" cy="179" r="2"/><circle cx="136" cy="162" r="2"/><circle cx="155" cy="145" r="2"/><circle cx="174" cy="124" r="2"/><circle cx="193" cy="105" r="2"/><circle cx="212" cy="99" r="2"/><circle cx="231" cy="102" r="2"/><circle cx="250" cy="99" r="2"/><circle cx="269" cy="95" r="2"/><circle cx="288" cy="91" r="2"/><circle cx="307" cy="93" r="2"/><circle cx="326" cy="97" r="2"/><circle cx="346" cy="103" r="2"/><circle cx="365" cy="108" r="2"/><circle cx="384" cy="114" r="2"/><circle cx="403" cy="122" r="2"/><circle cx="422" cy="132" r="2"/><circle cx="441" cy="144" r="2"/><circle cx="460" cy="156" r="2"/><circle cx="479" cy="167" r="2"/><circle cx="498" cy="178" r="2"/><circle cx="517" cy="189" r="2"/><circle cx="536" cy="202" r="2"/><circle cx="555" cy="214" r="2"/><circle cx="574" cy="226" r="2"/><circle cx="593" cy="238" r="2"/></g></g><g class="key-World_1"><path stroke="#34983f" stroke-linecap="round" d="M98 205l19-26 19-17 19-17 19-21 19-19 19-6 19 3 19-3 19-7 19-9 19-5 19-3 20 1h19l19-1h19l19 3 19 4 19 6 19 5 19 5 19 5 19 6 19 6 19 6 19 6" fill="none" stroke-width="1.5"/><g fill="#34983f"><circle cx="98" cy="205" r="2"/><circle cx="117" cy="179" r="2"/><circle cx="136" cy="162" r="2"/><circle cx="155" cy="145" r="2"/><circle cx="174" cy="124" r="2"/><circle cx="193" cy="105" r="2"/><circle cx="212" cy="99" r="2"/><circle cx="231" cy="102" r="2"/><circle cx="250" cy="99" r="2"/><circle cx="269" cy="92" r="2"/><circle cx="288" cy="83" r="2"/><circle cx="307" cy="78" r="2"/><circle cx="326" cy="75" r="2"/><circle cx="346" cy="76" r="2"/><circle cx="365" cy="76" r="2"/><circle cx="384" cy="75" r="2"/><circle cx="403" cy="75" r="2"/><circle cx="422" cy="78" r="2"/><circle cx="441" cy="82" r="2"/><circle cx="460" cy="88" r="2"/><circle cx="479" cy="93" r="2"/><circle cx="498" cy="98" r="2"/><circle cx="517" cy="103" r="2"/><circle cx="536" cy="109" r="2"/><circle cx="555" cy="115" r="2"/><circle cx="574" cy="121" r="2"/><circle cx="593" cy="127" r="2"/></g></g><g class="key-World_2"><path stroke="#3360a9" stroke-linecap="round" d="M98 205l19-26 19-17 19-17 19-21 19-19 19-6 19 3 19-3 19-1 19 3 19 12 19 11 20 10 19 10 19 11 19 13 19 13 19 14 19 13 19 13 19 12 19 12 19 12 19 12 19 11 19 10" fill="none" stroke-width="1.5"/><g fill="#3360a9"><circle cx="98" cy="205" r="2"/><circle cx="117" cy="179" r="2"/><circle cx="136" cy="162" r="2"/><circle cx="155" cy="145" r="2"/><circle cx="174" cy="124" r="2"/><circle cx="193" cy="105" r="2"/><circle cx="212" cy="99" r="2"/><circle cx="231" cy="102" r="2"/><circle cx="250" cy="99" r="2"/><circle cx="269" cy="98" r="2"/><circle cx="288" cy="101" r="2"/><circle cx="307" cy="113" r="2"/><circle cx="326" cy="124" r="2"/><circle cx="346" cy="134" r="2"/><circle cx="365" cy="144" r="2"/><circle cx="384" cy="155" r="2"/><circle cx="403" cy="168" r="2"/><circle cx="422" cy="181" r="2"/><circle cx="441" cy="195" r="2"/><circle cx="460" cy="208" r="2"/><circle cx="479" cy="221" r="2"/><circle cx="498" cy="233" r="2"/><circle cx="517" cy="245" r="2"/><circle cx="536" cy="257" r="2"/><circle cx="555" cy="269" r="2"/><circle cx="574" cy="280" r="2"/><circle cx="593" cy="290" r="2"/></g></g></g></g></g><g class="SourcesFooter" fill="#777"><g class="clickable" fill="#777"><text font-size="12.6" x="15" y="567"><tspan x="15" y="566.98">Source: Medium SSP2 - Wittgenstein Centre for Demography and Global Human Capital</tspan></text></g><text font-size="12.6" x="15" y="582.5"><tspan x="15" y="582.48"><a target="_blank" href="https://ourworldindata.org/world-population-future-eductation-now/" fill="#777">OurWorldInData.org/world-population-future-eductation-now/</a> • <a href="http://creativecommons.org/licenses/by-sa/4.0/deed.en_US" target="_blank" fill="#777">CC BY-SA</a></tspan></text></g></g></svg>

<svg xmlns="http://www.w3.org/2000/svg" version="1.1" style="font-family: 'Helvetica Neue', Helvetica, Arial, sans-serif; font-size: 18px; background-color: white; text-rendering: optimizeLegibility; -webkit-font-smoothing: antialiased;" width="850" height="600"><g class="ChartTab"><g class="HeaderView"><g opacity="0.8" transform="translate(770, 15) scale(0.31)"><a xmlns:xlink="http://www.w3.org/1999/xlink" xlink:href="https://ourworldindata.org" target="_blank"><g><rect x="0" y="0" fill="#1B2543" width="211.2" height="130.1"/><rect x="0" y="112.2" fill="#E63912" width="211.2" height="17.9"/><g><rect x="1.2" y="12.3" fill="none" width="210.2" height="99.2"/><path fill="#FFFFFF" d="M37.8,32.2c0,12.7-7.7,19.4-17.1,19.4c-9.7,0-16.6-7.5-16.6-18.7c0-11.7,7.3-19.3,17.1-19.3 C31.3,13.7,37.8,21.3,37.8,32.2z M9.2,32.8c0,7.9,4.3,14.9,11.8,14.9c7.5,0,11.8-6.9,11.8-15.3c0-7.3-3.8-14.9-11.8-14.9 C13.1,17.5,9.2,24.8,9.2,32.8z"/><path fill="#FFFFFF" d="M62.7,43.8c0,2.7,0.1,5.1,0.2,7.2h-4.3l-0.3-4.3h-0.1c-1.3,2.1-4,4.9-8.8,4.9c-4.2,0-9.1-2.3-9.1-11.6 V24.6h4.8v14.6c0,5,1.5,8.4,5.9,8.4c3.2,0,5.5-2.2,6.3-4.4c0.3-0.7,0.4-1.6,0.4-2.5V24.6h4.8V43.8z"/><path fill="#FFFFFF" d="M67.3,32.8c0-3.1-0.1-5.8-0.2-8.2h4.2l0.2,5.2h0.2c1.2-3.5,4.1-5.8,7.3-5.8c0.5,0,0.9,0.1,1.4,0.2v4.5 c-0.5-0.1-1-0.2-1.6-0.2c-3.4,0-5.8,2.6-6.5,6.2c-0.1,0.7-0.2,1.4-0.2,2.2V51h-4.8V32.8z"/><path fill="#FFFFFF" d="M95.4,51l-9.4-36.8h5l4.4,18.6c1.1,4.6,2.1,9.2,2.7,12.7h0.1c0.6-3.7,1.8-8,3-12.8l4.9-18.5h5l4.5,18.7 c1,4.4,2,8.7,2.6,12.6h0.1c0.8-4,1.8-8.1,3-12.7l4.9-18.5h4.9L120.6,51h-5L111,31.9c-1.1-4.7-1.9-8.3-2.4-12h-0.1 c-0.7,3.7-1.5,7.3-2.8,12L100.4,51H95.4z"/><path fill="#FFFFFF" d="M154.9,37.6c0,9.8-6.8,14-13.2,14c-7.2,0-12.7-5.2-12.7-13.6c0-8.8,5.8-14,13.1-14 C149.8,24,154.9,29.5,154.9,37.6z M133.9,37.9c0,5.8,3.3,10.1,8,10.1c4.6,0,8-4.3,8-10.3c0-4.5-2.2-10.1-7.9-10.1 C136.3,27.6,133.9,32.8,133.9,37.9z"/><path fill="#FFFFFF" d="M158.2,32.8c0-3.1-0.1-5.8-0.2-8.2h4.2l0.2,5.2h0.2c1.2-3.5,4.1-5.8,7.3-5.8c0.5,0,0.9,0.1,1.4,0.2v4.5 c-0.5-0.1-1-0.2-1.6-0.2c-3.4,0-5.8,2.6-6.5,6.2c-0.1,0.7-0.2,1.4-0.2,2.2V51h-4.8V32.8z"/><path fill="#FFFFFF" d="M173.5,12.3h4.8V51h-4.8V12.3z"/><path fill="#FFFFFF" d="M206.5,12.3v31.9c0,2.3,0.1,5,0.2,6.8h-4.3l-0.2-4.6H202c-1.5,2.9-4.7,5.2-9,5.2 c-6.4,0-11.3-5.4-11.3-13.4c-0.1-8.8,5.4-14.2,11.9-14.2c4,0,6.8,1.9,8,4h0.1V12.3H206.5z M201.7,35.4c0-0.6-0.1-1.4-0.2-2 c-0.7-3.1-3.3-5.6-6.9-5.6c-5,0-7.9,4.4-7.9,10.2c0,5.3,2.6,9.8,7.8,9.8c3.2,0,6.2-2.1,7.1-5.7c0.2-0.7,0.2-1.3,0.2-2.1V35.4z"/><path fill="#FFFFFF" d="M42.8,64c0.1,1.6-1.1,2.9-3.1,2.9c-1.7,0-2.9-1.3-2.9-2.9c0-1.7,1.3-3,3-3C41.7,61,42.8,62.3,42.8,64z M37.4,97.8V71.4h4.8v26.4H37.4z"/><path fill="#FFFFFF" d="M47.5,78.6c0-2.7-0.1-5-0.2-7.1h4.3l0.3,4.4h0.1c1.3-2.5,4.4-5,8.8-5c3.7,0,9.4,2.2,9.4,11.2v15.8h-4.8 V82.6c0-4.3-1.6-7.8-6.1-7.8c-3.2,0-5.6,2.2-6.5,4.9c-0.2,0.6-0.3,1.4-0.3,2.2v15.9h-4.8V78.6z"/><path fill="#FFFFFF" d="M84,61.6c2.9-0.4,6.3-0.8,10.1-0.8c6.8,0,11.7,1.6,14.9,4.6c3.3,3,5.2,7.3,5.2,13.2c0,6-1.9,10.9-5.3,14.3 c-3.4,3.4-9.1,5.3-16.3,5.3c-3.4,0-6.2-0.2-8.6-0.4V61.6z M88.8,94.1c1.2,0.2,3,0.3,4.8,0.3c10.2,0,15.7-5.7,15.7-15.6 c0.1-8.7-4.9-14.2-14.9-14.2c-2.5,0-4.3,0.2-5.6,0.5V94.1z"/><path fill="#FFFFFF" d="M132.1,97.8l-0.4-3.3h-0.2c-1.5,2.1-4.3,3.9-8.1,3.9c-5.4,0-8.1-3.8-8.1-7.6c0-6.4,5.7-9.9,15.9-9.8v-0.5 c0-2.2-0.6-6.1-6-6.1c-2.5,0-5,0.8-6.9,2l-1.1-3.2c2.2-1.4,5.4-2.3,8.7-2.3c8.1,0,10.1,5.5,10.1,10.8v9.9c0,2.3,0.1,4.5,0.4,6.3 H132.1z M131.4,84.4c-5.3-0.1-11.2,0.8-11.2,5.9c0,3.1,2.1,4.6,4.5,4.6c3.4,0,5.6-2.2,6.4-4.4c0.2-0.5,0.3-1,0.3-1.5V84.4z"/><path fill="#FFFFFF" d="M146.6,63.9v7.6h6.9v3.7h-6.9v14.2c0,3.3,0.9,5.1,3.6,5.1c1.3,0,2.2-0.2,2.8-0.3l0.2,3.6 c-0.9,0.4-2.4,0.7-4.3,0.7c-2.2,0-4-0.7-5.2-2c-1.4-1.4-1.9-3.8-1.9-6.9V75.1h-4.1v-3.7h4.1v-6.3L146.6,63.9z"/><path fill="#FFFFFF" d="M171.4,97.8l-0.4-3.3h-0.2c-1.5,2.1-4.3,3.9-8.1,3.9c-5.4,0-8.1-3.8-8.1-7.6c0-6.4,5.7-9.9,15.9-9.8v-0.5 c0-2.2-0.6-6.1-6-6.1c-2.5,0-5,0.8-6.9,2l-1.1-3.2c2.2-1.4,5.4-2.3,8.7-2.3c8.1,0,10.1,5.5,10.1,10.8v9.9c0,2.3,0.1,4.5,0.4,6.3 H171.4z M170.7,84.4c-5.3-0.1-11.2,0.8-11.2,5.9c0,3.1,2.1,4.6,4.5,4.6c3.4,0,5.6-2.2,6.4-4.4c0.2-0.5,0.3-1,0.3-1.5V84.4z"/></g></g></a></g><a href="https://ourworldindata.org/grapher/global-demand-for-education-global-population-younger-than-15-until-2100-by-education-scenario-by-the-wittgenstein-centre" target="_blank"><text font-size="21.60" x="15.0" y="32.3" fill="#555"><tspan x="15" y="32.279999999999994">Projections of the global population younger than 15, by education scenario</tspan></text></a></g><g class="LineChart"><defs><clipPath id="boundsClip-2"><rect x="87.598" y="0" width="830" height="933.8"></rect></clipPath></defs><g class="AxisBoxView"><g class="HorizontalAxis"><text x="97.6" y="541.9" fill="#666" text-anchor="middle" font-size="16.2">1970</text><text x="212" y="541.9" fill="#666" text-anchor="middle" font-size="16.2">2000</text><text x="288.3" y="541.9" fill="#666" text-anchor="middle" font-size="16.2">2020</text><text x="364.6" y="541.9" fill="#666" text-anchor="middle" font-size="16.2">2040</text><text x="440.9" y="541.9" fill="#666" text-anchor="middle" font-size="16.2">2060</text><text x="517.1" y="541.9" fill="#666" text-anchor="middle" font-size="16.2">2080</text><text x="593.4" y="541.9" fill="#666" text-anchor="middle" font-size="16.2">2100</text></g><g class="VerticalAxis"><text x="92.60" y="520.7" fill="#666" dominant-baseline="middle" text-anchor="end" font-size="16.2">0</text><text x="92.60" y="406.2" fill="#666" dominant-baseline="middle" text-anchor="end" font-size="16.2">500 million</text><text x="92.60" y="291.7" fill="#666" dominant-baseline="middle" text-anchor="end" font-size="16.2">1 billion</text><text x="92.60" y="177.3" fill="#666" dominant-baseline="middle" text-anchor="end" font-size="16.2">1.5 billion</text></g><g class="AxisGridLines"><line x1="97.60" y1="520.7" x2="593.42" y2="520.7" stroke="#ccc"></line><line x1="97.60" y1="406.2" x2="593.42" y2="406.2" stroke="#ddd" stroke-dasharray="3,2"></line><line x1="97.60" y1="291.7" x2="593.42" y2="291.7" stroke="#ddd" stroke-dasharray="3,2"></line><line x1="97.60" y1="177.3" x2="593.42" y2="177.3" stroke="#ddd" stroke-dasharray="3,2"></line></g><g class="AxisGridLines"><line x1="135.7" y1="520.70" x2="135.7" y2="75.00" stroke="#ddd" stroke-dasharray="3,2"></line><line x1="212" y1="520.70" x2="212" y2="75.00" stroke="#ddd" stroke-dasharray="3,2"></line><line x1="288.3" y1="520.70" x2="288.3" y2="75.00" stroke="#ddd" stroke-dasharray="3,2"></line><line x1="364.6" y1="520.70" x2="364.6" y2="75.00" stroke="#ddd" stroke-dasharray="3,2"></line><line x1="440.9" y1="520.70" x2="440.9" y2="75.00" stroke="#ddd" stroke-dasharray="3,2"></line><line x1="517.1" y1="520.70" x2="517.1" y2="75.00" stroke="#ddd" stroke-dasharray="3,2"></line><line x1="593.4" y1="520.70" x2="593.4" y2="75.00" stroke="#ddd" stroke-dasharray="3,2"></line></g></g><g clip-path="url(#boundsClip-2)"><g class="HeightedLegend clickable"><g class="legendMark"><rect x="603.424" y="112.45" width="231.57600000000002" height="29.900000000000002" fill="#fff" opacity="0"></rect><rect x="603.424" y="126.15" width="10" height="2.5" fill="#34983f"></rect><text font-size="14.40" x="618.4" y="124.0" fill="#333"><tspan x="618.424" y="123.97000000000001">Constant Enrollment Rates (CER)</tspan><tspan x="618.424" y="139.81">scenario</tspan></text></g><g class="legendMark"><rect x="603.424" y="222.65" width="217.32000000000002" height="29.900000000000002" fill="#fff" opacity="0"></rect><rect x="603.424" y="236.35" width="10" height="2.5" fill="#ca2628"></rect><text font-size="14.40" x="618.4" y="234.2" fill="#333"><tspan x="618.424" y="234.17000000000002">Global Education Trends (GET)</tspan><tspan x="618.424" y="250.01000000000002">scenario</tspan></text></g><g class="legendMark"><rect x="603.424" y="283" width="172.824" height="14.4" fill="#fff" opacity="0"></rect><rect x="603.424" y="288.95" width="10" height="2.5" fill="#3360a9"></rect><text font-size="14.40" x="618.4" y="294.5" fill="#333"><tspan x="618.424" y="294.52">Fast Track (FT) scenario</tspan></text></g></g><g class="Lines"><rect x="98" y="75" width="496" height="446" fill="rgba(255,255,255,0)" opacity="0"></rect><g class="key-World_0"><path stroke="#ca2628" stroke-linecap="round" d="M98 205L117 179L136 162L155 145L174 124L193 105L212 99L231 102L250 99L269 95L288 91L307 93L326 97L346 103L365 108L384 114L403 122L422 132L441 144L460 156L479 167L498 178L517 189L536 202L555 214L574 226L593 238" fill="none" stroke-width="1.5"></path><g fill="#ca2628"><circle cx="98" cy="205" r="2"></circle><circle cx="117" cy="179" r="2"></circle><circle cx="136" cy="162" r="2"></circle><circle cx="155" cy="145" r="2"></circle><circle cx="174" cy="124" r="2"></circle><circle cx="193" cy="105" r="2"></circle><circle cx="212" cy="99" r="2"></circle><circle cx="231" cy="102" r="2"></circle><circle cx="250" cy="99" r="2"></circle><circle cx="269" cy="95" r="2"></circle><circle cx="288" cy="91" r="2"></circle><circle cx="307" cy="93" r="2"></circle><circle cx="326" cy="97" r="2"></circle><circle cx="346" cy="103" r="2"></circle><circle cx="365" cy="108" r="2"></circle><circle cx="384" cy="114" r="2"></circle><circle cx="403" cy="122" r="2"></circle><circle cx="422" cy="132" r="2"></circle><circle cx="441" cy="144" r="2"></circle><circle cx="460" cy="156" r="2"></circle><circle cx="479" cy="167" r="2"></circle><circle cx="498" cy="178" r="2"></circle><circle cx="517" cy="189" r="2"></circle><circle cx="536" cy="202" r="2"></circle><circle cx="555" cy="214" r="2"></circle><circle cx="574" cy="226" r="2"></circle><circle cx="593" cy="238" r="2"></circle></g></g><g class="key-World_1"><path stroke="#34983f" stroke-linecap="round" d="M98 205L117 179L136 162L155 145L174 124L193 105L212 99L231 102L250 99L269 92L288 83L307 78L326 75L346 76L365 76L384 75L403 75L422 78L441 82L460 88L479 93L498 98L517 103L536 109L555 115L574 121L593 127" fill="none" stroke-width="1.5"></path><g fill="#34983f"><circle cx="98" cy="205" r="2"></circle><circle cx="117" cy="179" r="2"></circle><circle cx="136" cy="162" r="2"></circle><circle cx="155" cy="145" r="2"></circle><circle cx="174" cy="124" r="2"></circle><circle cx="193" cy="105" r="2"></circle><circle cx="212" cy="99" r="2"></circle><circle cx="231" cy="102" r="2"></circle><circle cx="250" cy="99" r="2"></circle><circle cx="269" cy="92" r="2"></circle><circle cx="288" cy="83" r="2"></circle><circle cx="307" cy="78" r="2"></circle><circle cx="326" cy="75" r="2"></circle><circle cx="346" cy="76" r="2"></circle><circle cx="365" cy="76" r="2"></circle><circle cx="384" cy="75" r="2"></circle><circle cx="403" cy="75" r="2"></circle><circle cx="422" cy="78" r="2"></circle><circle cx="441" cy="82" r="2"></circle><circle cx="460" cy="88" r="2"></circle><circle cx="479" cy="93" r="2"></circle><circle cx="498" cy="98" r="2"></circle><circle cx="517" cy="103" r="2"></circle><circle cx="536" cy="109" r="2"></circle><circle cx="555" cy="115" r="2"></circle><circle cx="574" cy="121" r="2"></circle><circle cx="593" cy="127" r="2"></circle></g></g><g class="key-World_2"><path stroke="#3360a9" stroke-linecap="round" d="M98 205L117 179L136 162L155 145L174 124L193 105L212 99L231 102L250 99L269 98L288 101L307 113L326 124L346 134L365 144L384 155L403 168L422 181L441 195L460 208L479 221L498 233L517 245L536 257L555 269L574 280L593 290" fill="none" stroke-width="1.5"></path><g fill="#3360a9"><circle cx="98" cy="205" r="2"></circle><circle cx="117" cy="179" r="2"></circle><circle cx="136" cy="162" r="2"></circle><circle cx="155" cy="145" r="2"></circle><circle cx="174" cy="124" r="2"></circle><circle cx="193" cy="105" r="2"></circle><circle cx="212" cy="99" r="2"></circle><circle cx="231" cy="102" r="2"></circle><circle cx="250" cy="99" r="2"></circle><circle cx="269" cy="98" r="2"></circle><circle cx="288" cy="101" r="2"></circle><circle cx="307" cy="113" r="2"></circle><circle cx="326" cy="124" r="2"></circle><circle cx="346" cy="134" r="2"></circle><circle cx="365" cy="144" r="2"></circle><circle cx="384" cy="155" r="2"></circle><circle cx="403" cy="168" r="2"></circle><circle cx="422" cy="181" r="2"></circle><circle cx="441" cy="195" r="2"></circle><circle cx="460" cy="208" r="2"></circle><circle cx="479" cy="221" r="2"></circle><circle cx="498" cy="233" r="2"></circle><circle cx="517" cy="245" r="2"></circle><circle cx="536" cy="257" r="2"></circle><circle cx="555" cy="269" r="2"></circle><circle cx="574" cy="280" r="2"></circle><circle cx="593" cy="290" r="2"></circle></g></g></g></g></g><g style="fill: #777;" class="SourcesFooter"><g style="fill: #777;" class="clickable"><text font-size="12.60" x="15.0" y="567.0"><tspan x="15" y="566.98">Source: Medium SSP2 - Wittgenstein Centre for Demography and Global Human Capital</tspan></text></g><text font-size="12.60" x="15.0" y="582.5"><tspan x="15" y="582.48"><a target='_blank' style='fill: #777;' href='https://ourworldindata.org/world-population-future-eductation-now/'>OurWorldInData.org/world-population-future-eductation-now/</a> • <a style="fill: #777;" href="http://creativecommons.org/licenses/by-sa/4.0/deed.en_US" target="_blank">CC BY-SA</a></tspan></text></g></g></svg>
